svgs/thin/rectangle-terminal.svg

<svg xmlns="http://www.w3.org/2000/svg" viewBox="0 0 512 512"><!-- Font Awesome Pro 6.0.0-alpha2 by @fontawesome - https://fontawesome.com License - https://fontawesome.com/license (Commercial License) --><path d="M448 32H64C28.654 32 0 60.656 0 96V416C0 451.344 28.654 480 64 480H448C483.346 480 512 451.344 512 416V96C512 60.656 483.346 32 448 32ZM496 416C496 442.469 474.467 464 448 464H64C37.533 464 16 442.469 16 416V96C16 69.531 37.533 48 64 48H448C474.467 48 496 69.531 496 96V416ZM221.438 250.125L109.438 146.125C106.234 143.188 101.188 143.281 98.141 146.562C95.125 149.781 95.312 154.844 98.562 157.875L204.25 256L98.562 354.125C95.312 357.156 95.125 362.219 98.141 365.437C99.719 367.156 101.859 368 104 368C105.953 368 107.906 367.281 109.438 365.875L221.438 261.875C223.078 260.344 224 258.219 224 256S223.078 251.656 221.438 250.125ZM408 368H232C227.578 368 224 371.594 224 376S227.578 384 232 384H408C412.422 384 416 380.406 416 376S412.422 368 408 368Z"/></svg>

<svg xmlns="http://www.w3.org/2000/svg" viewBox="0 0 512 512"><!--! Font Awesome Pro 6.0.0-alpha3 by @fontawesome - https://fontawesome.com License - https://fontawesome.com/license (Commercial License) --><path d="M448 32H64C28.65 32 0 60.66 0 96v320c0 35.34 28.65 64 64 64h384c35.35 0 64-28.66 64-64V96C512 60.66 483.3 32 448 32zM496 416c0 26.47-21.53 48-48 48H64c-26.47 0-48-21.53-48-48V96c0-26.47 21.53-48 48-48h384c26.47 0 48 21.53 48 48V416zM221.4 250.1l-112-104C106.2 143.2 101.2 143.3 98.14 146.6C95.13 149.8 95.31 154.8 98.56 157.9L204.3 256l-105.7 98.13c-3.25 3.031-3.438 8.094-.4219 11.31C99.72 367.2 101.9 368 104 368c1.953 0 3.906-.7187 5.438-2.125l112-104C223.1 260.3 224 258.2 224 256S223.1 251.7 221.4 250.1zM408 368h-176C227.6 368 224 371.6 224 376S227.6 384 232 384h176c4.422 0 8-3.594 8-8S412.4 368 408 368z"/></svg>
